svg/numeric_5_box_multiple.svg

<svg xmlns="http://www.w3.org/2000/svg" viewBox="0 0 24 24"><path d="M3 5v16h16v2H3a2 2 0 0 1-2-2V5zm18-4a2 2 0 0 1 2 2v14a2 2 0 0 1-2 2H7a2 2 0 0 1-2-2V3a2 2 0 0 1 2-2zm-4 12v-2a2 2 0 0 0-2-2h-2V7h4V5h-6v6h4v2h-4v2h4a2 2 0 0 0 2-2"/></svg>

<?xml version="1.0" encoding="UTF-8"?><!DOCTYPE svg PUBLIC "-//W3C//DTD SVG 1.1//EN" "http://www.w3.org/Graphics/SVG/1.1/DTD/svg11.dtd"><svg xmlns="http://www.w3.org/2000/svg" xmlns:xlink="http://www.w3.org/1999/xlink" version="1.1" id="mdi-numeric-5-box-multiple" width="24" height="24" viewBox="0 0 24 24"><path d="M3,5V21H19V23H3A2,2 0 0,1 1,21V5H3M21,1A2,2 0 0,1 23,3V17A2,2 0 0,1 21,19H7A2,2 0 0,1 5,17V3A2,2 0 0,1 7,1H21M17,13V11C17,9.89 16.1,9 15,9H13V7H17V5H11V11H15V13H11V15H15A2,2 0 0,0 17,13Z" /></svg>
